X: 22450
T: Lads Of Laois, The
R: reel
M: 4/4
K: Eminor
|:eB B2 EGFE|dA A2 DEFD|GEED EFGA|B2 e^c dBAF|
eB B2 EGFE|dA A2 DEFD|E2 BE dBAF|DEFA BE E2:|
|:eB B2 egfe|defa gfed|(3Bcd ef g3e|fgaf gfed|
eB B2 GBFA|EBBA Bdef|g3e f3d|egfd BAFA:|

